X:077
U: ~ = !turn!
%%topmargin 3cm
T:The Galway Hornpipe
B:Traditional Irish Fiddle Tunes. Randy Miller and Jack Perron.
Z:Transcribed by Ralph Palmer
S:Jean Carignan
R:Hornpipe
L:1/8
M:C|
K:D
D2 FA dAFD | CDEF GECE | D2 FA dcdf | edcB ((3.A.B.A) ((3.G.F.E) |
D2 FA dAFD | CDEF GFGE | DdcB ((3.A.B.A ) ((3.G.F.E) | [1 F2 D2 D2 z2 :| [2 F2 D2 D2 ||
|: de | {/g}fefg fedc | PBABc B2 cd | e2 df edcB | ((3.A.B.A) .^G.B A2 Bc :|]
